X: 7776
T: Come December
R: jig
M: 6/8
K: Gmajor
d|:edB AGA|BGF G2A|BAB dBd|ege dBd|
edB AGA|BGF G2A|BAB AGE|1 GAG G2d:|2 GAG G2z||
|:geg fdf|edB BAG|geg fdf|edB A2A|
GBd g2e|dBG AGE|DEG AGE|GAG G2z:|

